!!!COM: Unknown
!!!CDT: Unknown
!!!OTL: National Anthem, Sweden
!!!ENC: Davis, Matthew J.
!!Vocal Line Only
**kern
*clefG2
*k[b-e-]
*B-:
*M4/4
=1-
8dd
=2
4dd
8b-
8b-
4b-
8cc
8dd
=3
4dd
8cc
8b-
4.a
8cc
=4
4cc
8a
8b-
8cc
8a
8.dd
16b-
=5
2g
4f
8r
8f
=6
4b-
8b-
8cc
4a
8a
8b-
=7
8.g
16f
8g
8a
4.f
8f
=8
8.b-
16a
8b-
16cc
8dd
8b-
8.ee-
16dd
=9
2cc
4b-
8r
8f
=10
8.b-
16a
8b-
8cc
8dd
8b-
8.ee-
16dd
=11
2cc
4.b-
==|!
*-
